www/assets/icons/code.svg

<svg xmlns="http://www.w3.org/2000/svg" width="24" height="24" viewBox="0 0 24 24" fill='currentColor'><path d="M9.4 16.6 4.8 12l4.6-4.6L8 6l-6 6 6 6zm5.2 0 4.6-4.6-4.6-4.6L16 6l6 6-6 6z"/></svg>

<svg width="24" height="24" viewBox="0 0 24 24" xmlns="http://www.w3.org/2000/svg" fill='currentColor'><path d="M9.4 16.6L4.8 12L9.4 7.4L8 6L2 12L8 18L9.4 16.6ZM14.6 16.6L19.2 12L14.6 7.4L16 6L22 12L16 18L14.6 16.6Z"/></svg>
